32x32/apps/lutris_minetest.svg

<svg xmlns="http://www.w3.org/2000/svg" width="32" height="32" version="1.1">
 <path style="opacity:0.2" d="m 15.933418,14.001088 c -0.464192,0.01046 -0.895641,0.07902 -1.404119,0.36302 L 3.1037506,20.745746 c -0.5088834,0.284233 -1.0411683,0.820975 -1.0997537,1.626952 -0.058585,0.805978 0.5374459,1.567432 1.0938091,1.878189 l 11.437439,6.388278 c 0.556416,0.310784 1.066876,0.370309 1.531332,0.3597 0.464456,-0.01061 0.895558,-0.07896 1.404118,-0.36302 l 11.425549,-6.381638 c 0.508511,-0.284028 1.041115,-0.820659 1.099754,-1.626952 0.05864,-0.806294 -0.537757,-1.567606 -1.093809,-1.878189 L 17.46475,14.360788 c -0.556166,-0.310644 -1.066263,-0.370058 -1.530144,-0.3597 z"/>
 <path style="fill:#197236" d="m 15.933418,13.001088 c -0.464192,0.01046 -0.895641,0.07902 -1.404119,0.36302 L 3.1037506,19.745746 c -0.5088834,0.284233 -1.0411683,0.820975 -1.0997537,1.626952 -0.058585,0.805978 0.5374459,1.567432 1.0938091,1.878189 l 11.437439,6.388278 c 0.556416,0.310784 1.066876,0.370309 1.531332,0.3597 0.464456,-0.01061 0.895558,-0.07896 1.404118,-0.36302 l 11.425549,-6.381638 c 0.508511,-0.284028 1.041115,-0.820659 1.099754,-1.626952 0.05864,-0.806294 -0.537757,-1.567606 -1.093809,-1.878189 L 17.46475,13.360788 c -0.556166,-0.310644 -1.066263,-0.370058 -1.530144,-0.3597 z"/>
 <path style="opacity:0.1;fill:#f4f4f7" d="M 15.933594 13.001953 C 15.469402 13.012413 15.037775 13.079281 14.529297 13.363281 L 3.1035156 19.746094 C 2.5946322 20.030327 2.0624917 20.56707 2.0039062 21.373047 C 1.9883048 21.587682 2.0237562 21.797398 2.0878906 21.998047 C 2.2578124 21.403463 2.680615 20.982302 3.1035156 20.746094 L 14.529297 14.363281 C 15.037775 14.079281 15.469402 14.012413 15.933594 14.001953 L 15.935547 14.001953 C 16.399428 13.991595 16.908678 14.050684 17.464844 14.361328 L 28.902344 20.75 C 29.310317 20.977874 29.735345 21.449068 29.912109 22.001953 C 29.946677 21.881034 29.986186 21.763187 29.996094 21.626953 C 30.054734 20.820659 29.458396 20.060583 28.902344 19.75 L 17.464844 13.361328 C 16.908678 13.050684 16.399428 12.991595 15.935547 13.001953 L 15.933594 13.001953 z"/>
 <path style="opacity:0.2" d="m 10,16 h 4 v 5.5 L 12,23 10,21.5 Z"/>
 <path style="fill:#a0722e" d="m 10,15 h 4 v 5.5 L 12,22 10,20.5 Z"/>
 <path style="opacity:0.2" d="M 12.042118,3.000499 A 1.7755408,1.7054483 0 0 0 11.11227,3.2280103 L 5.8878478,6.1252364 A 1.7755408,1.7054483 0 0 0 5,7.6023477 v 5.7948263 a 1.7755408,1.7054483 0 0 0 0.8877708,1.476963 l 5.2244202,2.897376 a 1.7755408,1.7054483 0 0 0 1.775541,0 l 5.224421,-2.897376 A 1.7755408,1.7054483 0 0 0 19,13.397024 V 7.6021977 A 1.7755408,1.7054483 0 0 0 18.112153,6.1250857 L 12.887732,3.2278599 A 1.7755408,1.7054483 0 0 0 12.041884,3.0003501 Z"/>
 <path style="fill:#74ba2f" d="M 12.042118,2.0004989 A 1.7755408,1.7054483 0 0 0 11.11227,2.2280102 L 5.8878478,5.1252363 A 1.7755408,1.7054483 0 0 0 5,6.6023476 v 5.7948264 a 1.7755408,1.7054483 0 0 0 0.8877708,1.476963 l 5.2244202,2.897376 a 1.7755408,1.7054483 0 0 0 1.775541,0 l 5.224421,-2.897376 A 1.7755408,1.7054483 0 0 0 19,12.397024 V 6.6021976 A 1.7755408,1.7054483 0 0 0 18.112153,5.1250856 L 12.887732,2.2278598 A 1.7755408,1.7054483 0 0 0 12.041884,2.00035 Z"/>
 <path style="opacity:0.2;fill:#f4f4f7" d="M 12.041532,2 A 1.7755408,1.7054483 0 0 0 11.111844,2.2285156 L 5.8872346,5.125 A 1.7755408,1.7054483 0 0 0 5.0005158,6.6015625 v 1 A 1.7755408,1.7054483 0 0 1 5.8872346,6.125 L 11.111844,3.2285156 A 1.7755408,1.7054483 0 0 1 12.041532,3 1.7755408,1.7054483 0 0 1 12.887235,3.2285156 L 18.111844,6.125 a 1.7755408,1.7054483 0 0 1 0.888672,1.4765625 v -1 A 1.7755408,1.7054483 0 0 0 18.111844,5.125 L 12.887235,2.2285156 A 1.7755408,1.7054483 0 0 0 12.041532,2 Z"/>
</svg>

<svg xmlns="http://www.w3.org/2000/svg" width="32" height="32"><path style="opacity:.2" d="M15.933 14.001c-.464.01-.895.08-1.404.363L3.104 20.746c-.51.284-1.041.82-1.1 1.627-.059.806.537 1.567 1.094 1.878l11.437 6.388c.557.31 1.067.37 1.532.36.464-.01.895-.08 1.404-.363l11.425-6.382c.509-.284 1.041-.82 1.1-1.627.059-.806-.538-1.567-1.094-1.878l-11.437-6.388c-.556-.31-1.067-.37-1.53-.36z"/><path style="fill:#197236" d="M15.933 13.001c-.464.01-.895.08-1.404.363L3.104 19.746c-.51.284-1.041.82-1.1 1.627-.059.806.537 1.567 1.094 1.878l11.437 6.388c.557.31 1.067.37 1.532.36.464-.01.895-.08 1.404-.363l11.425-6.382c.509-.284 1.041-.82 1.1-1.627.059-.806-.538-1.567-1.094-1.878l-11.437-6.388c-.556-.31-1.067-.37-1.53-.36z"/><path style="opacity:.1;fill:#f4f4f7" d="M15.934 13.002c-.465.01-.896.077-1.405.361L3.104 19.746c-.51.284-1.042.821-1.1 1.627-.016.215.02.424.084.625.17-.595.593-1.016 1.016-1.252l11.425-6.383c.509-.284.94-.35 1.405-.361h.002c.463-.01.973.049 1.529.36l11.437 6.388c.408.228.833.7 1.01 1.252.035-.121.074-.239.084-.375.059-.806-.538-1.566-1.094-1.877l-11.437-6.389c-.556-.31-1.066-.37-1.53-.359h-.001z"/><path style="opacity:.2" d="M10 16h4v5.5L12 23l-2-1.5z"/><path style="fill:#a0722e" d="M10 15h4v5.5L12 22l-2-1.5z"/><path style="opacity:.2" d="M12.042 3a1.776 1.705 0 0 0-.93.228L5.888 6.125A1.776 1.705 0 0 0 5 7.602v5.795a1.776 1.705 0 0 0 .888 1.477l5.224 2.898a1.776 1.705 0 0 0 1.776 0l5.224-2.898A1.776 1.705 0 0 0 19 13.397V7.602a1.776 1.705 0 0 0-.888-1.477l-5.224-2.897A1.776 1.705 0 0 0 12.042 3z"/><path style="fill:#74ba2f" d="M12.042 2a1.776 1.705 0 0 0-.93.228L5.888 5.125A1.776 1.705 0 0 0 5 6.602v5.795a1.776 1.705 0 0 0 .888 1.477l5.224 2.898a1.776 1.705 0 0 0 1.776 0l5.224-2.898A1.776 1.705 0 0 0 19 12.397V6.602a1.776 1.705 0 0 0-.888-1.477l-5.224-2.897A1.776 1.705 0 0 0 12.042 2z"/><path style="opacity:.2;fill:#f4f4f7" d="M12.042 2a1.776 1.705 0 0 0-.93.229L5.887 5.125a1.776 1.705 0 0 0-.886 1.477v1a1.776 1.705 0 0 1 .886-1.477l5.225-2.896a1.776 1.705 0 0 1 .93-.229 1.776 1.705 0 0 1 .845.229l5.225 2.896A1.776 1.705 0 0 1 19 7.602v-1a1.776 1.705 0 0 0-.89-1.477l-5.224-2.896A1.776 1.705 0 0 0 12.042 2z"/></svg>
